www/assets/icons/hearing.svg

<svg width="24" height="24" viewBox="0 0 24 24" xmlns="http://www.w3.org/2000/svg" fill='currentColor'><path d="M17 20.3901C16.71 20.3901 16.44 20.3301 16.24 20.2401C15.53 19.8701 15.03 19.3601 14.53 17.8601C14.02 16.3001 13.06 15.5701 12.14 14.8601C11.35 14.2501 10.53 13.6201 9.82 12.3301C9.29 11.3701 9 10.3201 9 9.39011C9 6.59011 11.2 4.39011 14 4.39011C16.8 4.39011 19 6.59011 19 9.39011H21C21 5.46011 17.93 2.39011 14 2.39011C10.07 2.39011 7 5.46011 7 9.39011C7 10.6501 7.38 12.0401 8.07 13.2901C8.98 14.9401 10.05 15.7701 10.92 16.4401C11.73 17.0601 12.31 17.5101 12.63 18.4901C13.23 20.3101 14 21.3301 15.36 22.0401C15.87 22.2701 16.43 22.3901 17 22.3901C19.21 22.3901 21 20.6001 21 18.3901H19C19 19.4901 18.1 20.3901 17 20.3901ZM7.64 3.03011L6.22 1.61011C4.23 3.60011 3 6.35011 3 9.39011C3 12.4301 4.23 15.1801 6.22 17.1701L7.63 15.7601C6.01 14.1301 5 11.8801 5 9.39011C5 6.90011 6.01 4.65011 7.64 3.03011ZM11.5 9.39011C11.5 10.7701 12.62 11.8901 14 11.8901C15.38 11.8901 16.5 10.7701 16.5 9.39011C16.5 8.01011 15.38 6.89011 14 6.89011C12.62 6.89011 11.5 8.01011 11.5 9.39011Z"/></svg>

<svg xmlns="http://www.w3.org/2000/svg" width="24" height="24" viewBox="0 0 24 24" fill='currentColor'><path d="M17 20.39c-.29 0-.56-.06-.76-.15-.71-.37-1.21-.88-1.71-2.38-.51-1.56-1.47-2.29-2.39-3-.79-.61-1.61-1.24-2.32-2.53-.53-.96-.82-2.01-.82-2.94 0-2.8 2.2-5 5-5s5 2.2 5 5h2c0-3.93-3.07-7-7-7s-7 3.07-7 7c0 1.26.38 2.65 1.07 3.9.91 1.65 1.98 2.48 2.85 3.15.81.62 1.39 1.07 1.71 2.05.6 1.82 1.37 2.84 2.73 3.55A4 4 0 0 0 21 18.39h-2c0 1.1-.9 2-2 2M7.64 3.03 6.22 1.61A10.97 10.97 0 0 0 3 9.39c0 3.04 1.23 5.79 3.22 7.78l1.41-1.41A9 9 0 0 1 5 9.39C5 6.9 6.01 4.65 7.64 3.03m3.86 6.36a2.5 2.5 0 0 0 5 0 2.5 2.5 0 0 0-5 0"/></svg>
